assets/images/Header/Links/location.svg

<svg width="32" height="32" viewBox="0 0 32 32" fill="none" xmlns="http://www.w3.org/2000/svg">
<path fill-rule="evenodd" clip-rule="evenodd" d="M16.9482 2.01405C19.5177 2.14763 21.9467 3.22829 23.7663 5.04745C25.4542 6.73533 26.5106 8.95212 26.7584 11.3262C27.0062 13.7004 26.4304 16.0875 25.1275 18.0876L17.892 29.195C17.731 29.4422 17.5108 29.6452 17.2515 29.7858C16.9922 29.9264 16.7019 30 16.4069 30C16.1119 30 15.8216 29.9264 15.5623 29.7858C15.3029 29.6452 15.0828 29.4422 14.9218 29.195L7.68648 18.0876C6.28232 15.9315 5.72658 13.3317 6.12653 10.79C6.52649 8.24826 7.85377 5.94477 9.85222 4.3241C11.8507 2.70342 14.3786 1.88046 16.9482 2.01405ZM16.4069 27.9665L23.523 17.0424C25.7013 13.6985 25.2342 9.2235 22.4123 6.40149C21.6236 5.61284 20.6874 4.98725 19.657 4.56043C18.6266 4.13362 17.5222 3.91394 16.4069 3.91394C15.2916 3.91394 14.1872 4.13362 13.1568 4.56043C12.1264 4.98725 11.1902 5.61284 10.4016 6.40149C7.57966 9.2235 7.11248 13.6985 9.29071 17.0424L16.4069 27.9665ZM14.2791 9.22816C14.9089 8.80733 15.6494 8.58271 16.4068 8.58271C17.4222 8.58386 18.3957 8.98774 19.1137 9.70573C19.8317 10.4237 20.2356 11.3972 20.2367 12.4126C20.2367 13.1701 20.0121 13.9105 19.5913 14.5403C19.1704 15.1702 18.5723 15.661 17.8725 15.9509C17.1727 16.2408 16.4026 16.3166 15.6597 16.1689C14.9168 16.0211 14.2343 15.6563 13.6987 15.1207C13.1631 14.5851 12.7983 13.9027 12.6506 13.1597C12.5028 12.4168 12.5786 11.6468 12.8685 10.947C13.1584 10.2471 13.6493 9.64899 14.2791 9.22816ZM15.343 14.0048C15.6579 14.2152 16.0281 14.3275 16.4068 14.3275C16.9145 14.3269 17.4013 14.125 17.7603 13.766C18.1193 13.407 18.3212 12.9203 18.3218 12.4126C18.3218 12.0338 18.2095 11.6636 17.9991 11.3487C17.7886 11.0338 17.4896 10.7883 17.1397 10.6434C16.7898 10.4985 16.4047 10.4605 16.0333 10.5344C15.6618 10.6083 15.3206 10.7907 15.0528 11.0585C14.785 11.3263 14.6026 11.6675 14.5287 12.039C14.4548 12.4105 14.4927 12.7955 14.6377 13.1454C14.7826 13.4953 15.0281 13.7944 15.343 14.0048Z" fill="#565656"/>
</svg>

<svg xmlns="http://www.w3.org/2000/svg" width="32" height="32" fill="none" viewBox="0 0 32 32"><path fill="#565656" fill-rule="evenodd" d="M16.948 2.014a10.408 10.408 0 0 1 8.18 16.074l-7.236 11.107a1.773 1.773 0 0 1-2.97 0L7.686 18.088a10.408 10.408 0 0 1 9.262-16.074zm-.541 25.953l7.116-10.925c2.178-3.344 1.711-7.819-1.11-10.64a8.494 8.494 0 0 0-12.011 0c-2.822 2.821-3.29 7.296-1.111 10.64l7.116 10.924zm-2.128-18.74a3.83 3.83 0 1 1 4.256 6.369 3.83 3.83 0 0 1-4.256-6.369zm1.064 4.777a1.915 1.915 0 1 0 2.128-3.184 1.915 1.915 0 0 0-2.128 3.184z" clip-rule="evenodd"/></svg>
